X:1
T:Title
%%score { 1 | 2 }
L:1/8
M:6/8
K:Bb
V:1 treble nm="Grand Piano"
V:2 bass 
V:1
 z3 z2[Q:1/4=87] [DF] | [DF]>[DF][DF] [DF]>[DF][DF] | F>GA [DB]2 [DB] | A>Bc c>BA | %4
 B>d[FB] [Fc]2 [Fc] | [Fd]>[DB][EG] [DF]>[DF][DF] | [EG]<[GB][EG] [DF]2 [DB] | A>Bc c>BA | %8
[M:5/8] [DB]-[DB]- [DB]3 |[M:1/8] [DB] |[M:3/4] c>B AA- A/G/F | F>G A [DB]2 [DB] | c>B AA- A/G/F | %13
 F>e d c2 c | [Fd]>[Ec] [DB][DB]- [DB]/[DF]/[DF] |[M:7/8] [EG]>[FA][GB] [Ge]3 G | %16
[M:3/4] F>F FF- F/G/A |[M:5/8] [DB]-[DB]- [DB]3 |] %18
V:2
 z3 z2 [B,,B,] | [B,,B,]>[B,,B,][B,,B,] [B,,B,]>[B,,B,][B,,B,] | %2
 [F,A,E]>[F,B,E][F,CE] [B,,B,]2 [B,,B,] | [F,CF]>[F,DF][F,EF] [F,EF]>[F,DF][F,CF] | %4
 [B,DF]>[B,F][K:bass][D,B,] [F,A,]2 [F,A,] | [B,,B,]>[B,,B,][B,,B,] [B,,B,]>[B,,B,][B,,B,] | %6
 [E,B,]<[E,B,][E,B,] [B,,B,]2 [B,,B,] | [F,CF]>[F,DF][F,EF] [F,EF]>[F,DF][F,CE] | %8
[M:5/8] [B,,B,]-[B,,B,]- [B,,B,]3 |[M:1/8] [B,,B,] | %10
[M:3/4] [F,A,E]>[F,B,E] [F,CE][F,CF]- [F,CF]/[F,B,E]/[F,A,E] | %11
 [F,A,E]>[F,B,E] [F,CE] [B,,B,]2 [B,,B,] | [F,A,E]>[F,B,D] [F,CE][F,CE]- [F,CE]/[G,B,E]/[F,A,E] | %13
 [F,A,E]>[F,CF] [F,B,F] [F,A,F]2 [F,A,F] | %14
 [B,,B,]>[B,,B,] [B,,B,][B,,B,]- [B,,B,]/[B,,B,]/[B,,B,] | %15
[M:7/8] [E,B,]>[E,B,][E,B,] [E,B,]3 [E,B,E] | %16
[M:3/4] [F,B,D]>[F,B,D] [F,B,D][F,A,E]- [F,A,E]/[F,B,E]/[F,CE] | %17
[M:5/8] [B,,B,]-[B,,B,]- [B,,B,]3 |] %18

